cutejava-front/src/assets/icons/svg/love-log.svg

<svg class="icon" viewBox="0 0 1024 1024" xmlns="http://www.w3.org/2000/svg" width="200" height="200"><defs><style/></defs><path d="M911.9 122H782V62a30 30 0 0 0-60 0v60H542V62a30 30 0 0 0-60 0v60H302V62a30 30 0 0 0-60 0v60H112.1A80.1 80.1 0 0 0 32 202.1v709.8a80.1 80.1 0 0 0 80.1 80.1h799.8a80.1 80.1 0 0 0 80.1-80.1V202.1a80.1 80.1 0 0 0-80.1-80.1zM932 911.9a20.1 20.1 0 0 1-20.1 20.1H112.1A20.1 20.1 0 0 1 92 911.9V202.1a20.1 20.1 0 0 1 20.1-20.1H242v60a30 30 0 0 0 60 0v-60h180v60a30 30 0 0 0 60 0v-60h180v60a30 30 0 0 0 60 0v-60h129.9a20.1 20.1 0 0 1 20.1 20.1z"/><path d="M242 392h120v90H242zm0 150h120v90H242zm0 150h120v90H242zm210 0h120v90H452zm0-150h120v90H452zm0-150h120v90H452zm210 300h120v90H662zm0-150h120v90H662zm0-150h120v90H662z"/></svg>

<?xml version="1.0" standalone="no"?><!DOCTYPE svg PUBLIC "-//W3C//DTD SVG 1.1//EN" "http://www.w3.org/Graphics/SVG/1.1/DTD/svg11.dtd"><svg t="1608289289624" class="icon" viewBox="0 0 1024 1024" version="1.1" xmlns="http://www.w3.org/2000/svg" p-id="8105" xmlns:xlink="http://www.w3.org/1999/xlink" width="200" height="200"><defs><style type="text/css"></style></defs><path d="M911.9 122H782V62a30 30 0 0 0-60 0v60h-180V62a30 30 0 0 0-60 0v60H302V62a30 30 0 0 0-60 0v60H112.1A80.1 80.1 0 0 0 32 202.1v709.8A80.1 80.1 0 0 0 112.1 992h799.8A80.1 80.1 0 0 0 992 911.9V202.1A80.1 80.1 0 0 0 911.9 122zM932 911.9a20.1 20.1 0 0 1-20.1 20.1H112.1a20.1 20.1 0 0 1-20.1-20.1V202.1A20.1 20.1 0 0 1 112.1 182H242v60a30 30 0 0 0 60 0V182h180v60a30 30 0 0 0 60 0V182h180v60a30 30 0 0 0 60 0V182h129.9a20.1 20.1 0 0 1 20.1 20.1z" fill="#343231" p-id="8106"></path><path d="M242 392h120v90H242zM242 542h120v90H242zM242 692h120v90H242zM452 692h120v90h-120zM452 542h120v90h-120zM452 392h120v90h-120zM662 692h120v90h-120zM662 542h120v90h-120zM662 392h120v90h-120z" fill="#343231" p-id="8107"></path></svg>
